;FLAVOR:Marlin
;TIME:5918
;Filament used: 3.78518m
;Layer height: 0.2
;MINX:87.301
;MINY:72.169
;MINZ:0.2
;MAXX:147.699
;MAXY:162.831
;MAXZ:50
;Generated with Cura_SteamEngine 4.8.0
M104 S210
M105
M109 S210
M82 ;absolute extrusion mode
M117 Heating... ;Put printing message on LCD screen
;M300 S2500 P100; Beep
M221 S{if layer_height<0.075}100{else}94{endif} ; Set flow
M104 S[first_layer_temperature] ; set extruder temp

;G1 Z50 ; this is a good start heating position
G28 X Y; Home X Y
G1 Y10 ; this is a good start heating position
M84 ; disable motors

M109 S[first_layer_temperature] ; wait for extruder temp
M140 S[first_layer_bed_temperature] ; set bed temp

; Auto Leveling
M280 P0 S160 ; BLTouch alarm release
G4 P100 ; delay for BLTouch
G28 ; home
G29 ; auto bed leveling ONLY UNCOMMENT THIS IF BED LEVELING WITH BLTOUCH REMOVE
;M500 ; ONLY UNCOMMENT THIS IF BED LEVELING WITH BLTOUCH REMOVE
;M420 S1 ; Load Saved Eeprom From Auto Level

M190 S[first_layer_bed_temperature] ; wait for bed temp

; Start of print
G21; metric values
G90 ; absolute positioning
M82; set extruder to absolute mode


; Prepare nozzle
;G91;
;G92 E0 ; Set extrusion distance to 0
;G1 F1800 E3;
;G92 E0 ; Set extrusion distance to 0
G90;

; You may want to adjust the X and Y here so the nozzle is really above the bed!
G1 X5 Y18 F7200 ; Move to a position in the left front of the bed
G1 Z0.6; Move nozzle above 0.6 mm of the bed

G91 ; Use relative mode
; Make some jerky zick-zack move at the beginning
; This is supposed to get rid of residue at the nozzle
;G1 X1.0 Y5.0 Z-0.1 E-1.0 F7200 ; X6 Y10 Z0.1, retract a tiny bit / 120mm/s
;G1 X1.0 Y-5.0 Z0.1 E2.0 F7200 ; X7 Y5 Z0.2 extrude a tiny bit
;G1 X2.0 Y5.0 Z-0.1 F7200 ; X9 Y10 Z0.1
;G1 X2.0 Y-5.0 Z0.1 F7200 ; X11 Y5 Z0.2
;G1 X2.0 Y5.0 F7200 ; X13 Y10
;G1 X2.0 Y-5.0 F7200 ; X15 Y5

; now print a line of filament to prepare extrusion
G1 X200 E40 F1000 ; prints a line in the front

; Done with the dancing :)
G92 E0 ; Set extrusion distance to 0
G90 ; switch back to absolute mode

M117 Printing... ;Put printing message on LCD screen
; Start of actual GCode for the print
G92 E0
G92 E0
G1 F3600 E-6.8
;LAYER_COUNT:250
;LAYER:0
M107
M204 S500
M205 X8 Y8
G0 F6000 X99.227 Y76.413 Z0.2
;TYPE:SKIRT
G1 F2400 E0
G1 F1800 X99.788 Y75.704 E0.03157
G1 X100.409 Y75.048 E0.06312
G1 X101.086 Y74.45 E0.09467
G1 X101.813 Y73.913 E0.12623
G1 X102.584 Y73.443 E0.15777
G1 X103.394 Y73.043 E0.18931
G1 X104.237 Y72.716 E0.22089
G1 X105.105 Y72.465 E0.25245
G1 X105.992 Y72.292 E0.28401
G1 X106.89 Y72.198 E0.31554
G1 X107.356 Y72.18 E0.33183
G1 X108.192 Y72.169 E0.36102
G1 X126.793 Y72.169 E1.01063
G1 X127.64 Y72.18 E1.04021
G1 X128.542 Y72.233 E1.07177
G1 X129.435 Y72.365 E1.10329
G1 X130.314 Y72.576 E1.13486
G1 X131.171 Y72.864 E1.16644
G1 X131.998 Y73.226 E1.19796
G1 X132.791 Y73.66 E1.22953
G1 X133.542 Y74.163 E1.2611
G1 X134.245 Y74.73 E1.29264
G1 X134.896 Y75.357 E1.32421
G1 X135.489 Y76.039 E1.35577
G1 X136.019 Y76.77 E1.3873
G1 X136.262 Y77.157 E1.40326
G1 X136.697 Y77.889 E1.433
G1 X146.082 Y94.146 E2.08856
G1 X146.406 Y94.727 E2.11179
G1 X146.811 Y95.535 E2.14335
G1 X147.143 Y96.376 E2.17493
G1 X147.399 Y97.242 E2.20646
G1 X147.577 Y98.128 E2.23802
G1 X147.677 Y99.026 E2.26958
G1 X147.696 Y99.929 E2.30112
G1 X147.636 Y100.831 E2.33269
G1 X147.554 Y101.413 E2.35322
G1 X147.401 Y102.312 E2.38507
G1 X147.003 Y104.859 E2.47509
G1 X146.676 Y107.417 E2.56515
G1 X146.428 Y109.918 E2.65293
G1 X146.25 Y112.462 E2.74199
G1 X146.143 Y115.002 E2.83077
G1 X146.108 Y117.536 E2.91927
G1 X146.145 Y120.068 E3.00771
G1 X146.255 Y122.634 E3.0974
G1 X146.434 Y125.156 E3.1857
G1 X146.684 Y127.66 E3.27358
G1 X147.011 Y130.207 E3.36326
G1 X147.401 Y132.691 E3.45108
G1 X147.552 Y133.57 E3.48222
G1 X147.665 Y134.467 E3.5138
G1 X147.699 Y135.37 E3.54535
G1 X147.653 Y136.272 E3.5769
G1 X147.527 Y137.167 E3.60846
G1 X147.322 Y138.047 E3.64002
G1 X147.041 Y138.906 E3.67158
G1 X146.685 Y139.736 E3.70312
G1 X146.4 Y140.283 E3.72466
G1 X145.973 Y141.044 E3.75513
G1 X136.653 Y157.186 E4.40608
G1 X136.27 Y157.83 E4.43225
G1 X135.775 Y158.585 E4.46378
G1 X135.214 Y159.294 E4.49535
G1 X134.593 Y159.95 E4.5269
G1 X133.916 Y160.549 E4.55847
G1 X133.189 Y161.086 E4.59003
G1 X132.418 Y161.556 E4.62156
G1 X131.608 Y161.956 E4.65311
G1 X130.765 Y162.283 E4.68469
G1 X129.898 Y162.534 E4.71621
G1 X129.011 Y162.708 E4.74778
G1 X128.112 Y162.802 E4.77935
G1 X127.644 Y162.82 E4.7957
G1 X126.808 Y162.831 E4.8249
G1 X108.061 Y162.83 E5.4796
G1 X107.36 Y162.82 E5.50409
G1 X106.458 Y162.767 E5.53564
G1 X105.565 Y162.635 E5.56717
G1 X104.686 Y162.424 E5.59874
G1 X103.829 Y162.136 E5.63031
G1 X103.002 Y161.774 E5.66184
G1 X102.209 Y161.34 E5.69341
G1 X101.458 Y160.837 E5.72498
G1 X100.755 Y160.27 E5.75652
G1 X100.104 Y159.643 E5.78808
G1 X99.511 Y158.961 E5.81964
G1 X98.981 Y158.23 E5.85118
G1 X98.737 Y157.84 E5.86724
G1 X98.28 Y157.072 E5.89845
G1 X88.918 Y140.854 E6.55243
G1 X88.594 Y140.273 E6.57566
G1 X88.189 Y139.465 E6.60723
G1 X87.857 Y138.624 E6.6388
G1 X87.601 Y137.758 E6.67034
G1 X87.423 Y136.872 E6.7019
G1 X87.323 Y135.974 E6.73346
G1 X87.304 Y135.071 E6.765
G1 X87.364 Y134.169 E6.79657
G1 X87.446 Y133.587 E6.81709
G1 X87.599 Y132.688 E6.84894
G1 X87.997 Y130.141 E6.93897
G1 X88.324 Y127.583 E7.02903
G1 X88.572 Y125.082 E7.1168
G1 X88.75 Y122.538 E7.20586
G1 X88.857 Y119.998 E7.29465
G1 X88.892 Y117.457 E7.3834
G1 X88.855 Y114.932 E7.47159
G1 X88.745 Y112.366 E7.56128
G1 X88.568 Y109.875 E7.64849
G1 X88.312 Y107.311 E7.73848
G1 X87.988 Y104.789 E7.82728
G1 X87.599 Y102.309 E7.91495
G1 X87.448 Y101.43 E7.9461
G1 X87.335 Y100.533 E7.97767
G1 X87.301 Y99.63 E8.00923
G1 X87.347 Y98.728 E8.04077
G1 X87.473 Y97.833 E8.07233
G1 X87.678 Y96.953 E8.10389
G1 X87.959 Y96.094 E8.13545
G1 X88.315 Y95.264 E8.16699
G1 X88.6 Y94.717 E8.18853
G1 X89.027 Y93.956 E8.21901
G1 X98.371 Y77.773 E8.87161
G1 X98.731 Y77.168 E8.8962
G1 X99.227 Y76.413 E8.92775
G1 F3600 E2.12775
;MESH:CE3_bullone.3mf(1)
G0 F6000 X109.888 Y93.195
G0 X109.106 Y92.413
G0 X107.708 Y94.216
G0 X106.997 Y95.454
G0 X106.429 Y96.832
G0 X106.017 Y98.422
G0 X105.842 Y99.908
G0 X105.85 Y101.312
G0 X106.065 Y102.895
G0 X106.461 Y104.344
G0 X107.036 Y105.732
G0 X107.782 Y107.044
G0 X108.687 Y108.256
G0 X109.741 Y109.352
G0 X110.944 Y110.328
G0 X111.863 Y110.917
G0 X113.249 Y111.513
G0 X114.94 Y111.989
G0 X116.614 Y112.209
G0 X118.174 Y112.217
G0 X118.158 Y112.089
;TYPE:WALL-OUTER
G1 F2400 E8.92775
G1 F1200 X118.224 Y112.081 E8.9303
G1 X118.729 Y112.005 E8.94992
G1 X119.232 Y111.911 E8.96958
G1 X119.727 Y111.795 E8.98911
G1 X120.216 Y111.66 E9.0086
G1 X120.699 Y111.504 E9.02809
G1 X121.358 Y111.257 E9.05513
G1 X122.042 Y110.949 E9.08395
G1 X122.664 Y110.626 E9.11087
G1 X123.309 Y110.237 E9.13981
G1 X123.887 Y109.842 E9.1667
G1 X124.438 Y109.413 E9.19353
G1 X125.003 Y108.916 E9.22243
G1 X125.497 Y108.426 E9.24916
G1 X125.998 Y107.862 E9.27814
G1 X126.464 Y107.265 E9.30724
G1 X126.853 Y106.698 E9.33365
G1 X127.208 Y106.11 E9.36004
G1 X127.557 Y105.439 E9.38909
G1 X127.835 Y104.814 E9.41537
G1 X128.099 Y104.1 E9.44461
G1 X128.293 Y103.454 E9.47052
G1 X128.467 Y102.712 E9.4998
G1 X128.574 Y102.058 E9.52526
G1 X128.589 Y101.953 E9.52933
G1 X128.655 Y101.294 E9.55478
G1 X128.679 Y100.638 E9.57999
G1 X128.68 Y100.518 E9.5846
G1 X128.662 Y99.868 E9.60958
G1 X128.604 Y99.228 E9.63427
G1 X128.588 Y99.09 E9.63961
G1 X128.489 Y98.466 E9.66388
G1 X128.457 Y98.307 E9.67011
G1 X128.316 Y97.7 E9.69405
G1 X128.144 Y97.119 E9.71732
G1 X128.082 Y96.93 E9.72497
G1 X127.874 Y96.376 E9.7477
G1 X127.777 Y96.147 E9.75725
G1 X127.647 Y95.86 E9.76936
G1 X127.536 Y95.627 E9.77927
G1 X127.383 Y95.335 E9.79193
G1 X127.289 Y95.161 E9.79953
G1 X127.112 Y94.855 E9.81311
G1 X126.892 Y94.508 E9.8289
G1 X126.868 Y94.462 E9.83089
G1 X126.64 Y94.076 E9.84811
G1 X126.397 Y93.699 E9.86534
G1 X126.138 Y93.332 E9.8826
G1 X125.894 Y93.012 E9.89806
G1 X125.615 Y92.677 E9.9148
G1 X125.574 Y92.631 E9.91717
G1 X125.038 Y92.06 E9.94726
G1 X124.463 Y91.534 E9.97719
G1 X124.367 Y91.453 E9.98202
G1 X123.804 Y91.015 E10.00942
G1 X123.696 Y90.939 E10.01449
G1 X123.106 Y90.549 E10.04166
G1 X122.985 Y90.478 E10.04705
G1 X122.375 Y90.14 E10.07384
G1 X122.241 Y90.074 E10.07958
G1 X121.614 Y89.789 E10.10604
G1 X121.539 Y89.758 E10.10916
G1 X120.826 Y89.497 E10.13832
G1 X120.744 Y89.47 E10.14164
G1 X120.016 Y89.267 E10.17067
G1 X119.927 Y89.246 E10.17419
G1 X119.187 Y89.101 E10.20315
G1 X118.446 Y89.012 E10.23182
G1 X118.247 Y88.995 E10.2395
G1 X117.508 Y88.968 E10.26791
G1 X117.391 Y88.97 E10.2724
G1 X116.776 Y88.993 E10.29604
G1 X116.535 Y89.013 E10.30533
G1 X115.945 Y89.082 E10.32815
G1 X115.678 Y89.126 E10.33855
G1 X115.124 Y89.234 E10.36023
G1 X114.824 Y89.31 E10.37212
G1 X114.317 Y89.451 E10.39233
G1 X113.976 Y89.567 E10.40617
G1 X113.528 Y89.73 E10.42449
G1 X113.135 Y89.901 E10.44095
G1 X112.767 Y90.069 E10.45649
G1 X112.551 Y90.178 E10.46578
G1 X112.03 Y90.466 E10.48865
G1 X111.768 Y90.627 E10.50047
G1 X111.329 Y90.921 E10.52076
G1 X111.038 Y91.134 E10.53462
G1 X110.64 Y91.398 E10.55296
G1 X110.272 Y91.672 E10.57059
G1 X109.941 Y91.934 E10.58681
G1 X109.613 Y92.221 E10.60355
G1 X109.255 Y92.562 E10.62254
G1 X108.803 Y93.037 E10.64773
G1 X108.729 Y93.123 E10.65209
G1 X108.314 Y93.624 E10.67708
G1 X107.901 Y94.195 E10.70415
G1 X107.834 Y94.296 E10.70881
G1 X107.494 Y94.844 E10.73358
G1 X107.432 Y94.954 E10.73843
G1 X107.131 Y95.52 E10.76306
G1 X106.842 Y96.16 E10.79004
G1 X106.791 Y96.285 E10.79522
G1 X106.57 Y96.879 E10.81957
G1 X106.348 Y97.617 E10.84918
G1 X106.193 Y98.297 E10.87597
G1 X106.164 Y98.447 E10.88184
G1 X106.067 Y99.06 E10.90568
G1 X106.002 Y99.749 E10.93226
G1 X105.991 Y99.914 E10.93862
G1 X105.974 Y100.522 E10.96198
G1 X105.977 Y100.701 E10.96886
G1 X105.999 Y101.302 E10.99196
G1 X106.068 Y101.989 E11.01849
G1 X106.096 Y102.183 E11.02602
G1 X106.191 Y102.758 E11.04841
G1 X106.212 Y102.864 E11.05256
G1 X106.344 Y103.426 E11.07473
G1 X106.401 Y103.639 E11.0832
G1 X106.563 Y104.179 E11.10486
G1 X106.602 Y104.294 E11.10953
G1 X106.839 Y104.927 E11.13549
G1 X107.11 Y105.542 E11.16131
G1 X107.169 Y105.666 E11.16658
G1 X107.48 Y106.257 E11.19224
G1 X107.557 Y106.391 E11.19818
G1 X107.819 Y106.828 E11.21775
G1 X107.906 Y106.961 E11.22386
G1 X108.278 Y107.497 E11.24892
G1 X108.39 Y107.646 E11.25608
G1 X108.675 Y108.01 E11.27384
G1 X108.8 Y108.158 E11.28128
G1 X109.223 Y108.631 E11.30566
G1 X109.385 Y108.798 E11.3146
G1 X109.662 Y109.074 E11.32962
G1 X109.841 Y109.242 E11.33905
G1 X110.299 Y109.644 E11.36246
G1 X110.547 Y109.843 E11.37467
G1 X110.755 Y110.005 E11.3848
G1 X111.03 Y110.206 E11.39789
G1 X111.489 Y110.518 E11.41921
G1 X111.868 Y110.752 E11.43632
G1 X111.929 Y110.784 E11.43896
G1 X112.416 Y111.016 E11.45969
G1 X112.832 Y111.194 E11.47707
G1 X113.299 Y111.372 E11.49627
G1 X113.771 Y111.531 E11.5154
G1 X114.25 Y111.672 E11.53458
G1 X114.46 Y111.726 E11.54291
G1 X114.972 Y111.843 E11.56309
G1 X115.187 Y111.888 E11.57153
G1 X115.444 Y111.931 E11.58154
G1 X115.886 Y111.998 E11.59871
G1 X116.15 Y112.032 E11.60894
G1 X116.481 Y112.06 E11.6217
G1 X116.81 Y112.085 E11.63437
G1 X117.15 Y112.1 E11.64745
G1 X117.736 Y112.104 E11.66996
G1 X118.158 Y112.089 E11.68618
G0 F6000 X118.197 Y112.595
G1 F3600 E4.88618
G0 F6000 X118.174 Y112.298
G0 X119.78 Y111.999
G0 X119.495 Y110.93
G0 X128.209 Y117.122
G0 X127.254 Y116.594
G0 X127.367 Y116.79
G1 F2400 E11.68618
G1 F1200 X107.633 Y116.79 E12.44427
G1 X97.766 Y99.7 E13.20236
G1 X107.633 Y82.61 E13.96044
G1 X127.367 Y82.61 E14.71853
G1 X137.234 Y99.7 E15.47662
G1 X127.367 Y116.79 E16.2347
G0 F6000 X127.113 Y116.282
G0 X127.106 Y116.338
;TYPE:SKIN
G1 F1200 X107.894 Y116.338 E16.97274
G1 X98.288 Y99.7 E17.71078
G1 X107.894 Y83.062 E18.44881
G1 X127.106 Y83.062 E19.18685
G1 X136.712 Y99.7 E19.92489
G1 X127.106 Y116.338 E20.66292
G1 F3600 E13.86292
G0 F6000 X127.317 Y116.459
G0 X128.209 Y117.122
G0 X122.238 Y109.838
G0 X122.768 Y110.81
G0 X123.422 Y110.414
G0 X123.554 Y110.617
G1 F2400 E20.66292
G1 F1200 X124.153 Y110.208 E20.69078
G1 X124.726 Y109.761 E20.7187
G1 X125.312 Y109.247 E20.74865
G1 X125.826 Y108.737 E20.77646
G1 X126.346 Y108.151 E20.80656
G1 X126.828 Y107.533 E20.83667
G1 X127.233 Y106.943 E20.86416
G1 X127.603 Y106.331 E20.89163
G1 X127.964 Y105.635 E20.92175
G1 X128.254 Y104.984 E20.94913
G1 X128.528 Y104.243 E20.97948
G1 X128.73 Y103.571 E21.00643
G1 X128.911 Y102.8 E21.03686
G1 X129.02 Y102.126 E21.06309
G1 X129.037 Y102.008 E21.06766
G1 X129.107 Y101.325 E21.09404
G1 X129.131 Y100.648 E21.12006
G1 X129.132 Y100.514 E21.12521
G1 X129.114 Y99.841 E21.15107
G1 X129.054 Y99.181 E21.17653
G1 X129.036 Y99.029 E21.18241
G1 X128.934 Y98.386 E21.20742
G1 X128.899 Y98.211 E21.21428
G1 X128.753 Y97.585 E21.23897
G1 X128.576 Y96.984 E21.26304
G1 X128.508 Y96.78 E21.2713
G1 X128.294 Y96.208 E21.29476
G1 X128.191 Y95.965 E21.3049
G1 X128.057 Y95.67 E21.31735
G1 X127.941 Y95.425 E21.32776
G1 X127.684 Y94.94 E21.34885
G1 X127.499 Y94.62 E21.36305
G1 X127.283 Y94.28 E21.37852
G1 X127.263 Y94.242 E21.38017
G1 X127.025 Y93.839 E21.39815
G1 X126.772 Y93.446 E21.41611
G1 X126.502 Y93.064 E21.43408
G1 X126.248 Y92.73 E21.45019
G1 X125.957 Y92.381 E21.46765
G1 X125.907 Y92.325 E21.47053
G1 X125.355 Y91.738 E21.50149
G1 X124.762 Y91.194 E21.5324
G1 X124.651 Y91.101 E21.53797
G1 X124.073 Y90.651 E21.56611
G1 X123.951 Y90.565 E21.57184
G1 X123.345 Y90.165 E21.59973
G1 X123.209 Y90.085 E21.6058
G1 X122.584 Y89.739 E21.63324
G1 X122.435 Y89.665 E21.63963
G1 X121.794 Y89.374 E21.66667
G1 X121.703 Y89.337 E21.67045
G1 X120.975 Y89.07 E21.70023
G1 X120.875 Y89.038 E21.70427
G1 X120.129 Y88.829 E21.73403
G1 X120.022 Y88.804 E21.73825
G1 X119.257 Y88.655 E21.76819
G1 X118.493 Y88.562 E21.79776
G1 X118.274 Y88.543 E21.8062
G1 X117.512 Y88.516 E21.83549
G1 X117.379 Y88.518 E21.8406
G1 X116.749 Y88.541 E21.86482
G1 X116.49 Y88.563 E21.87481
G1 X115.882 Y88.634 E21.89832
G1 X115.598 Y88.681 E21.90938
G1 X115.025 Y88.792 E21.9318
G1 X114.708 Y88.873 E21.94437
G1 X114.184 Y89.019 E21.96527
G1 X113.826 Y89.14 E21.97978
G1 X113.36 Y89.31 E21.99884
G1 X112.951 Y89.488 E22.01597
G1 X112.571 Y89.662 E22.03203
G1 X112.34 Y89.779 E22.04198
G1 X111.803 Y90.075 E22.06553
G1 X111.524 Y90.247 E22.07812
G1 X111.069 Y90.551 E22.09914
G1 X110.807 Y90.744 E22.11164
G1 X110.38 Y91.028 E22.13135
G1 X109.996 Y91.314 E22.14974
G1 X109.652 Y91.586 E22.16659
G1 X109.308 Y91.887 E22.18415
G1 X108.936 Y92.243 E22.20393
G1 X108.469 Y92.733 E22.22993
G1 X108.384 Y92.831 E22.23491
G1 X107.956 Y93.347 E22.26067
G1 X107.529 Y93.938 E22.28868
G1 X107.454 Y94.052 E22.29392
G1 X107.105 Y94.613 E22.3193
G1 X107.035 Y94.737 E22.32477
G1 X106.725 Y95.321 E22.35017
G1 X106.427 Y95.982 E22.37802
G1 X106.37 Y96.121 E22.38379
G1 X106.141 Y96.735 E22.40897
G1 X105.911 Y97.502 E22.43973
G1 X105.751 Y98.203 E22.46735
G1 X105.718 Y98.369 E22.47385
G1 X105.619 Y99.003 E22.4985
G1 X105.552 Y99.712 E22.52586
G1 X105.539 Y99.892 E22.53279
G1 X105.522 Y100.52 E22.55693
G1 X105.525 Y100.713 E22.56434
G1 X105.547 Y101.333 E22.58817
G1 X105.62 Y102.044 E22.61563
G1 X105.65 Y102.252 E22.6237
G1 X105.746 Y102.838 E22.64652
G1 X105.77 Y102.959 E22.65125
G1 X105.906 Y103.536 E22.67403
G1 X105.966 Y103.762 E22.68301
G1 X106.132 Y104.316 E22.70523
G1 X106.176 Y104.446 E22.7105
G1 X106.42 Y105.097 E22.73721
G1 X106.699 Y105.73 E22.76378
G1 X106.764 Y105.868 E22.76964
G1 X107.084 Y106.474 E22.79597
G1 X107.167 Y106.62 E22.80242
G1 X107.436 Y107.068 E22.82249
G1 X107.531 Y107.214 E22.82918
G1 X107.912 Y107.761 E22.85479
G1 X108.032 Y107.921 E22.86248
G1 X108.325 Y108.295 E22.88073
G1 X108.459 Y108.455 E22.88874
G1 X108.892 Y108.939 E22.91369
G1 X109.064 Y109.115 E22.92315
G1 X109.347 Y109.399 E22.93855
G1 X109.538 Y109.577 E22.94858
G1 X110.008 Y109.99 E22.97261
G1 X110.267 Y110.198 E22.98537
G1 X110.483 Y110.365 E22.99586
G1 X110.769 Y110.576 E23.00952
G1 X111.243 Y110.898 E23.03153
G1 X111.644 Y111.145 E23.04962
G1 X111.727 Y111.189 E23.05323
G1 X112.23 Y111.428 E23.07462
G1 X112.662 Y111.613 E23.09268
G1 X113.146 Y111.797 E23.11257
G1 X113.634 Y111.962 E23.13236
